dist/img/SpotlightLogoRound.svg

<svg width="287" height="276" xmlns="http://www.w3.org/2000/svg"><path d="M180.7 71.4c.1 1.2.1 2.3 0 3.5-.4 7-3.5 12.2-7.8 16.5-4.7 4.6-10.9 7.2-17.4 7.2-6.6.2-13-2.3-17.8-6.8-10.2-9.4-10.9-25.4-1.5-35.6l1.2-1.2c4.2-4.1 9-6.5 16.3-7.2 6.9-.5 13.7 1.9 18.8 6.6 4.7 4.4 7.6 10.5 8.2 17zM281.3 158l-7.5 14.5c-2.2 4.3-3.7 8.9-4.4 13.6l-2.5 16.2c-2.1 14.1-11 26.3-23.8 32.7l-14.6 7.3c-4.3 2.2-8.2 5-11.6 8.4l-11.5 11.7c-10 10.2-24.4 14.8-38.5 12.5l-16.1-2.7c-4.7-.8-9.6-.8-14.3 0l-16.1 2.7c-14.1 2.3-28.4-2.3-38.5-12.5l-11.5-11.7c-3.4-3.4-7.3-6.3-11.6-8.4L44.2 235c-12.8-6.4-21.6-18.6-23.8-32.7l-2.5-16.2c-.7-4.8-2.2-9.4-4.4-13.6L5.9 158c-6.6-12.7-6.6-27.8 0-40.4l7.5-14.5c2.2-4.3 3.7-8.9 4.4-13.6l2.5-16.2c2.1-14.1 11-26.3 23.8-32.7l14.6-7.3c4.3-2.2 8.2-5 11.6-8.4l11.5-11.6C91.8 3.1 106.2-1.5 120.3.8l16.1 2.7c4.7.8 9.6.8 14.3 0L166.8.8c14.1-2.3 28.4 2.3 38.5 12.5l11.5 11.6c3.4 3.4 7.3 6.3 11.6 8.4l14.6 7.3c12.8 6.4 21.6 18.6 23.8 32.7l2.5 16.2c.7 4.8 2.2 9.4 4.4 13.6l7.5 14.5c6.6 12.6 6.6 27.7.1 40.4zm-86.6-87.1c-.2-5.4-1.6-10.6-4.1-15.4-7.3-14.2-22.3-22.7-38.3-21.7-1.6.2-3 .3-4.4.5-8.6 1.6-16.4 6-22.2 12.5-7.2 7.9-10.8 18.4-10 29 .9 11 5.8 20.4 12.9 26.5 5.2 4.5 11.8 8.5 20.1 9.7 15.9 2.4 28.1-3.9 36-12.5 7.1-7.7 10.7-18.1 10-28.6zM79 151.3c2.9-1.6 5.7-3.3 8.5-4.9-1-11.5-1.9-23.9-2.8-34.5 11.7-4.9 20-14.4 23.7-27.8 3-10.8 1.7-23.5-3.8-30.6-1.8-2.5-4.3-4.5-7.1-5.8-4.8-1.8-10.6-.4-14.6 1.3-2.2 1-4.3 2.2-6.2 3.6-3.8 2.7-7.3 5.7-10.5 9.2 3.4 29.6 6.8 60.7 10.1 91 .9-.4 1.8-.9 2.7-1.5zm1.5-85c.2-.9 2.4-2.2 3.2-2.8 1.5-1.1 3.2-1.7 5.1-1.9 5.5-.2 6.8 4.5 7.1 9.8.2 2.8.2 5.6 0 8.4-.7 9.3-5.1 15.3-12.4 18.3-.6-5.8-1-12.8-1.7-19.5-.3-2.7-.7-6.3-1.1-9.5-.1-.9-.2-1.8-.2-2.8zM67 140.9c-1.2-5-2.8-9.8-5-14.4-2.2-4.7-3.6-9.6-4.4-14.7-.8-7.1.6-13.3 5.1-16.6-1.7-5.5-3.1-10.9-4.8-16.3-9.8 5.2-16.6 14.6-16.6 28.6 0 8.6 3.2 14.2 6.3 20.4 2.1 4.1 3.9 8.3 5.3 12.7 1.4 4.7 2.7 9.9 2.3 14.8-.8 9.4-4.7 16-9.8 21.6-.5.6-2.2 2-2.2 2.4.3.7.6 1.3 1 1.9 2 4.2 3.8 7.8 5.8 11.9.3.6.6 1.8 1 2 .4.2 1.2-.8 1.7-1.4 1.7-1.8 3.3-3.7 4.8-5.7 8.3-11.5 13.3-29.4 9.5-47.2zm33 19.9c4.1-11.6 8-23.6 11-35.8.9-3.6 2-7.3 2.7-11 .1-.4.4-1.3 0-1.5-5.3 1.6-10.8 3-16 4.7-2.2 18.1-7.6 34.2-13.7 49.3-6.1 15.1-13.6 29-21.4 42.3 9.6 10.4 21.8 18.3 35.2 24.9 2.4-4 5-7.9 7.3-12-8.2-5-16.7-9.8-23.7-16 7-14.7 13.2-29.7 18.6-44.9zm31.2-31.9c-3.4-2.3-7.6-4-11.3-6-7.4 28.4-17.3 54.6-26.8 81.2 3.3 1.8 6.5 3.8 9.9 5.6 6.4-12.4 10.3-25.7 15.4-39.2 2.5-6.6 4.6-13.4 6.7-20.3 2.1-6.9 4.2-14.1 6.1-21.3zM160 212v-11.8c0-2.7-.1-5.7-.2-10.4-7.1.9-14.3 1.5-21.3 2.5-.3 3.9-.3 8-.5 12.1 3.1.2 8-.4 11.1-.4 0 5.8 0 10.8.1 15.7 0 1.9.3 3.8-.2 5.4-.7 2.4-3.2 3.9-6.4 3.6-3.7-.4-6.6-4.2-8.2-7.3-5.5-10.8-3.7-28.6-1.5-40.6 1.4-8.1 4.3-15.9 8.7-22.9 4.1-6.5 9.7-11.9 17.7-14.2 0-3.3-.2-7.8-.4-11.5-.1-1.7 0-3.8-.4-4.7-.1-.1-.3.1-.4.1-4.9 1.7-9.4 4.3-13.4 7.6-5.9 4.6-10.8 10.3-14.5 16.8-1.3 2.3-2.4 4.6-3.4 7-4.3 9.6-6.3 20.7-7.5 33-.9 9.4-1 18 .4 26.5.5 2.7 1.3 5.4 2.3 8 3.5 9.2 10.3 16.9 24.1 15 5.3-.7 9.6-2.8 14.1-4.7 0-8.8-.2-18-.2-24.8zm42.3-53.2c-.7-6.6-1.1-13.4-1.3-20.1-.3-9.3 0-18.3.5-27.6 0-.1 0-.1-.1-.1-3.6 2.8-7.7 5.7-11.6 8.5-.6.4-1.1.8-1.5 1.4-.1.8-.1 1.6 0 2.4-.1 13.4.7 27.6 1 39.6-3.3 1.4-6.6 3.2-9.9 4.5-1.4-13.9-2.2-26.3-3.1-40.5-4.4 1.5-8.4 3.3-12.7 4.9.9 6.6 1.8 12.9 2.4 19 1.1 9.7 1.6 19.4 1.7 29.1 0 2.8 0 5.6-.2 8.4-.4 5.9-.3 11.9-.7 17.8-.9 11.4-.8 23.6-.8 34.4 2.3-1 4.5-2.3 6.8-3.4 2.3-1 4.5-2.2 6.7-3.5 0-4.3.2-7.7.3-11.4.4-14.1.8-25.9.3-38.4 3.8-1.8 7.6-3.6 11.6-5.3 2.7 16.1 8.1 30.2 13 44.6 4.1-3.1 7.6-6.8 11.5-10.2-2.8-7.3-5.1-15.1-7.3-22.8-3.3-10.1-5.4-20.6-6.6-31.3zm30.7-45c2.3-.9 4.4-2.3 6.6-3.4 2.2-1.1 4.3-2.3 6.4-3.6-4-11.5-9-22-15.9-31-6.7-8.9-14.6-16.9-23.5-23.6 0-.2-.3 0-.3.1-2.2 2.7-4.2 5.6-6.1 8.6-.4.7-1.8 2.5-1.7 3.2.6.8 1.3 1.5 2.1 2.1.8.8 1.6 1.4 2.2 2 3.6 3.7 6.6 7 9.9 11 .5.6 1.7 1.9 1.7 2.5-.2 1.1-.5 2.2-.9 3.2-1.6 5.7-2.7 11.3-3.7 17.3-2 11.6-2.6 23.5-1.8 35.2.9 12.5 3.3 23.8 6 34.8 1.3 5.4 2.9 10.8 4.9 16 1.5 3.9 3 7.8 4.7 11.3.6 1.2.9 2.6 1.9 3.5 3.4-4.4 7-8.6 10.3-13-5-8.9-8.4-19.8-11-31.1-1-3.9-1.7-8-2.1-12-1.5-16.3-2.1-34 2.3-49.4 3.5 5.1 6.2 10.6 8 16.3z" fill="#FFF"/></svg>

<?xml version="1.0" encoding="UTF-8"?>
<svg width="287px" height="276px" viewBox="0 0 287 276" version="1.1" xmlns="http://www.w3.org/2000/svg" xmlns:xlink="http://www.w3.org/1999/xlink">
    <!-- Generator: Sketch 44.1 (41455) - http://www.bohemiancoding.com/sketch -->
    <title>Shape</title>
    <desc>Created with Sketch.</desc>
    <defs></defs>
    <g id="Symbols" stroke="none" stroke-width="1" fill="none" fill-rule="evenodd">
        <g id="logo/SpotlightLogoRow" fill-rule="nonzero" fill="#FFFFFF">
            <g id="SpotlightLogoRow">
                <g id="Layer_1">
                    <path d="M180.7,71.4 C180.8,72.6 180.8,73.7 180.7,74.9 C180.3,81.9 177.2,87.1 172.9,91.4 C168.2,96 162,98.6 155.5,98.6 C148.9,98.8 142.5,96.3 137.7,91.8 C127.5,82.4 126.8,66.4 136.2,56.2 C136.6,55.8 137,55.4 137.4,55 C141.6,50.9 146.4,48.5 153.7,47.8 C160.6,47.3 167.4,49.7 172.5,54.4 C177.2,58.8 180.1,64.9 180.7,71.4 Z M281.3,158 L273.8,172.5 C271.6,176.8 270.1,181.4 269.4,186.1 L266.9,202.3 C264.8,216.4 255.9,228.6 243.1,235 L228.5,242.3 C224.2,244.5 220.3,247.3 216.9,250.7 L205.4,262.4 C195.4,272.6 181,277.2 166.9,274.9 L150.8,272.2 C146.1,271.4 141.2,271.4 136.5,272.2 L120.4,274.9 C106.3,277.2 92,272.6 81.9,262.4 L70.4,250.7 C67,247.3 63.1,244.4 58.8,242.3 L44.2,235 C31.4,228.6 22.6,216.4 20.4,202.3 L17.9,186.1 C17.2,181.3 15.7,176.7 13.5,172.5 L5.9,158 C-0.7,145.3 -0.7,130.2 5.9,117.6 L13.4,103.1 C15.6,98.8 17.1,94.2 17.8,89.5 L20.3,73.3 C22.4,59.2 31.3,47 44.1,40.6 L58.7,33.3 C63,31.1 66.9,28.3 70.3,24.9 L81.8,13.3 C91.8,3.1 106.2,-1.5 120.3,0.8 L136.4,3.5 C141.1,4.3 146,4.3 150.7,3.5 L166.8,0.8 C180.9,-1.5 195.2,3.1 205.3,13.3 L216.8,24.9 C220.2,28.3 224.1,31.2 228.4,33.3 L243,40.6 C255.8,47 264.6,59.2 266.8,73.3 L269.3,89.5 C270,94.3 271.5,98.9 273.7,103.1 L281.2,117.6 C287.8,130.2 287.8,145.3 281.3,158 Z M194.7,70.9 C194.5,65.5 193.1,60.3 190.6,55.5 C183.3,41.3 168.3,32.8 152.3,33.8 C150.7,34 149.3,34.1 147.9,34.3 C139.3,35.9 131.5,40.3 125.7,46.8 C118.5,54.7 114.9,65.2 115.7,75.8 C116.6,86.8 121.5,96.2 128.6,102.3 C133.8,106.8 140.4,110.8 148.7,112 C164.6,114.4 176.8,108.1 184.7,99.5 C191.8,91.8 195.4,81.4 194.7,70.9 Z M79,151.3 C81.9,149.7 84.7,148 87.5,146.4 C86.5,134.9 85.6,122.5 84.7,111.9 C96.4,107 104.7,97.5 108.4,84.1 C111.4,73.3 110.1,60.6 104.6,53.5 C102.8,51 100.3,49 97.5,47.7 C92.7,45.9 86.9,47.3 82.9,49 C80.7,50 78.6,51.2 76.7,52.6 C72.9,55.3 69.4,58.3 66.2,61.8 C69.6,91.4 73,122.5 76.3,152.8 C77.2,152.4 78.1,151.9 79,151.3 Z M80.5,66.3 C80.7,65.4 82.9,64.1 83.7,63.5 C85.2,62.4 86.9,61.8 88.8,61.6 C94.3,61.4 95.6,66.1 95.9,71.4 C96.1,74.2 96.1,77 95.9,79.8 C95.2,89.1 90.8,95.1 83.5,98.1 C82.9,92.3 82.5,85.3 81.8,78.6 C81.5,75.9 81.1,72.3 80.7,69.1 C80.6,68.2 80.5,67.3 80.5,66.3 L80.5,66.3 Z M67,140.9 C65.8,135.9 64.2,131.1 62,126.5 C59.8,121.8 58.4,116.9 57.6,111.8 C56.8,104.7 58.2,98.5 62.7,95.2 C61,89.7 59.6,84.3 57.9,78.9 C48.1,84.1 41.3,93.5 41.3,107.5 C41.3,116.1 44.5,121.7 47.6,127.9 C49.7,132 51.5,136.2 52.9,140.6 C54.3,145.3 55.6,150.5 55.2,155.4 C54.4,164.8 50.5,171.4 45.4,177 C44.9,177.6 43.2,179 43.2,179.4 C43.5,180.1 43.8,180.7 44.2,181.3 C46.2,185.5 48,189.1 50,193.2 C50.3,193.8 50.6,195 51,195.2 C51.4,195.4 52.2,194.4 52.7,193.8 C54.4,192 56,190.1 57.5,188.1 C65.8,176.6 70.8,158.7 67,140.9 Z M100,160.8 C104.1,149.2 108,137.2 111,125 C111.9,121.4 113,117.7 113.7,114 C113.8,113.6 114.1,112.7 113.7,112.5 C108.4,114.1 102.9,115.5 97.7,117.2 C95.5,135.3 90.1,151.4 84,166.5 C77.9,181.6 70.4,195.5 62.6,208.8 C72.2,219.2 84.4,227.1 97.8,233.7 C100.2,229.7 102.8,225.8 105.1,221.7 C96.9,216.7 88.4,211.9 81.4,205.7 C88.4,191 94.6,176 100,160.8 L100,160.8 Z M131.2,128.9 C127.8,126.6 123.6,124.9 119.9,122.9 C112.5,151.3 102.6,177.5 93.1,204.1 C96.4,205.9 99.6,207.9 103,209.7 C109.4,197.3 113.3,184 118.4,170.5 C120.9,163.9 123,157.1 125.1,150.2 C127.2,143.3 129.3,136.1 131.2,128.9 L131.2,128.9 Z M160,212 L160,200.2 C160,197.5 159.9,194.5 159.8,189.8 C152.7,190.7 145.5,191.3 138.5,192.3 C138.2,196.2 138.2,200.3 138,204.4 C141.1,204.6 146,204 149.1,204 C149.1,209.8 149.1,214.8 149.2,219.7 C149.2,221.6 149.5,223.5 149,225.1 C148.3,227.5 145.8,229 142.6,228.7 C138.9,228.3 136,224.5 134.4,221.4 C128.9,210.6 130.7,192.8 132.9,180.8 C134.3,172.7 137.2,164.9 141.6,157.9 C145.7,151.4 151.3,146 159.3,143.7 C159.3,140.4 159.1,135.9 158.9,132.2 C158.8,130.5 158.9,128.4 158.5,127.5 C158.4,127.4 158.2,127.6 158.1,127.6 C153.2,129.3 148.7,131.9 144.7,135.2 C138.8,139.8 133.9,145.5 130.2,152 C128.9,154.3 127.8,156.6 126.8,159 C122.5,168.6 120.5,179.7 119.3,192 C118.4,201.4 118.3,210 119.7,218.5 C120.2,221.2 121,223.9 122,226.5 C125.5,235.7 132.3,243.4 146.1,241.5 C151.4,240.8 155.7,238.7 160.2,236.8 C160.2,228 160,218.8 160,212 L160,212 Z M202.3,158.8 C201.6,152.2 201.2,145.4 201,138.7 C200.7,129.4 201,120.4 201.5,111.1 C201.5,111 201.5,111 201.4,111 C197.8,113.8 193.7,116.7 189.8,119.5 C189.2,119.9 188.7,120.3 188.3,120.9 C188.2,121.7 188.2,122.5 188.3,123.3 C188.2,136.7 189,150.9 189.3,162.9 C186,164.3 182.7,166.1 179.4,167.4 C178,153.5 177.2,141.1 176.3,126.9 C171.9,128.4 167.9,130.2 163.6,131.8 C164.5,138.4 165.4,144.7 166,150.8 C167.1,160.5 167.6,170.2 167.7,179.9 C167.7,182.7 167.7,185.5 167.5,188.3 C167.1,194.2 167.2,200.2 166.8,206.1 C165.9,217.5 166,229.7 166,240.5 C168.3,239.5 170.5,238.2 172.8,237.1 C175.1,236.1 177.3,234.9 179.5,233.6 C179.5,229.3 179.7,225.9 179.8,222.2 C180.2,208.1 180.6,196.3 180.1,183.8 C183.9,182 187.7,180.2 191.7,178.5 C194.4,194.6 199.8,208.7 204.7,223.1 C208.8,220 212.3,216.3 216.2,212.9 C213.4,205.6 211.1,197.8 208.9,190.1 C205.6,180 203.5,169.5 202.3,158.8 L202.3,158.8 Z M233,113.8 C235.3,112.9 237.4,111.5 239.6,110.4 C241.8,109.3 243.9,108.1 246,106.8 C242,95.3 237,84.8 230.1,75.8 C223.4,66.9 215.5,58.9 206.6,52.2 C206.6,52 206.3,52.2 206.3,52.3 C204.1,55 202.1,57.9 200.2,60.9 C199.8,61.6 198.4,63.4 198.5,64.1 C199.1,64.9 199.8,65.6 200.6,66.2 C201.4,67 202.2,67.6 202.8,68.2 C206.4,71.9 209.4,75.2 212.7,79.2 C213.2,79.8 214.4,81.1 214.4,81.7 C214.2,82.8 213.9,83.9 213.5,84.9 C211.9,90.6 210.8,96.2 209.8,102.2 C207.8,113.8 207.2,125.7 208,137.4 C208.9,149.9 211.3,161.2 214,172.2 C215.3,177.6 216.9,183 218.9,188.2 C220.4,192.1 221.9,196 223.6,199.5 C224.2,200.7 224.5,202.1 225.5,203 C228.9,198.6 232.5,194.4 235.8,190 C230.8,181.1 227.4,170.2 224.8,158.9 C223.8,155 223.1,150.9 222.7,146.9 C221.2,130.6 220.6,112.9 225,97.5 C228.5,102.6 231.2,108.1 233,113.8 L233,113.8 Z" id="Shape"></path>
                </g>
            </g>
        </g>
    </g>
</svg>
